X: 56
T:P\aal sine h\oner
M:C|
L:1/8
Q:280
C:anon.
R:Reinlender
O:Norway
Z:Transcribed by Frank Nordberg - http://www.musicaviva.com
K:D
"D"d2d>f(a2a>)f|"G"b2b>g"D"a2a2|"A7"g2g>e"D"f2f>d|"A7"e2e>c"D"d2z2:|
w:P\aal si-ne h\o-ner p\aa hau-gen ut-slep-te, h\o-na s\aa lett o-ver ha
u-ga-ne sprang.
w:P\aal kun-ne vel[ext] p\aa h\o-na for-nem-ma, re-ven var u-te med rum-
pa s\aa lang.
"D"a2zfd2zf|"E7"e2e>d"A7"c2A2|"D"a2zfd2zf|"E7"e2e>d"A7"c2A2|
w:Klukk, klukk, klukk, sa h\o-na p\aa hau-gen. Klukk, klukk, klukk, sa h
\o-na p\aa hau-gen.
"D"d3fa3f|"G"b2b>g"D"a2a2|"A7"g2g>e "D"ff fd|"A7"e2e>c"D"d2z2|]
w:P\aal han sprang og reng-de med au-ga: "No t\or eg ik-kje ko-ma heim \
aat ho mor."
W:
W: From "Falaleiro" http://home.t-online.de/home/pheld/homepage.htm

